X:3
T:Speed the Plow
R:Reel
M:C
L:1/8
K:A
"A"e4 c4 | "E"BABd "A"cBA2 | "D"fefg afed | "E"c2<B2 B2 cd |
"A"e4 c4 | "E"BABd "A"cBA2 | "D"fefg afed | "E"cB3 "A"A4:|
|:"A"e2e2 "D"fedf | "A"ece2 "D"f3e | "D"fefg "Bm"afed | "E"c2<B2 B2cd |
"A"e2e2 "D"fedf | "A"ece2 "D"f3"<("">)"e | "Bm"fefg afed | "E"cB3 "A"A4:|]
%%text Note in parentheses is to be omitted the last time.
%%vskip 1cm
%%sep 0 0 20cm
